icons/square-plus-outline.svg

<svg xmlns="http://www.w3.org/2000/svg" width="24" height="24" viewBox="0 0 24 24">
  <path d="M19,2 C20.6568542,2 22,3.34314575 22,5 L22,5 L22,19 C22,20.6568542 20.6568542,22 19,22 L19,22 L5,22 C3.34314575,22 2,20.6568542 2,19 L2,19 L2,5 C2,3.34314575 3.34314575,2 5,2 L5,2 Z M19,4 L5,4 C4.44771525,4 4,4.44771525 4,5 L4,5 L4,19 C4,19.5522847 4.44771525,20 5,20 L5,20 L19,20 C19.5522847,20 20,19.5522847 20,19 L20,19 L20,5 C20,4.44771525 19.5522847,4 19,4 L19,4 Z M12,7 C12.5128358,7 12.9355072,7.38604019 12.9932723,7.88337887 L13,8 L12.999,11 L16,11 C16.5522847,11 17,11.4477153 17,12 C17,12.5128358 16.6139598,12.9355072 16.1166211,12.9932723 L16,13 L12.999,13 L13,16 C13,16.5522847 12.5522847,17 12,17 C11.4871642,17 11.0644928,16.6139598 11.0067277,16.1166211 L11,16 L10.999,13 L8,13 C7.44771525,13 7,12.5522847 7,12 C7,11.4871642 7.38604019,11.0644928 7.88337887,11.0067277 L8,11 L10.999,11 L11,8 C11,7.44771525 11.4477153,7 12,7 Z"/>
</svg>

<svg xmlns="http://www.w3.org/2000/svg" viewBox="0 0 24 24">
  <path d="M19 2a3 3 0 0 1 3 3v14a3 3 0 0 1-3 3H5a3 3 0 0 1-3-3V5a3 3 0 0 1 3-3zm0 2H5a1 1 0 0 0-1 1v14a1 1 0 0 0 1 1h14a1 1 0 0 0 1-1V5a1 1 0 0 0-1-1zm-7 3a1 1 0 0 1 1 .88V11h3a1 1 0 0 1 .12 2H13v3a1 1 0 0 1-2 .12V13H8a1 1 0 0 1-.12-2H11V8a1 1 0 0 1 1-1z"/>
</svg>
